X:1
T: Miss Russell of Blackhall
C:
R:Jig
Q: 180
K:Gm
M:6/8
L:1/8
|:D|G^FG BAB|G^FG D2=E|F=EF fcA|cAF FGA|
G^FG BAB|d^cd g^fg|dcB cBA|G3 G2:|
d|gdb ag^f|g3 d2=e|fca gf=e|fAB cBA|
gdb ag^f|g3 gfe|dcB cBA|G3 G2d|
gdb ag^f|gdb ag=e|fca gf=e|fAB cBA|
BAG cBA|dcB edc|dba ga^f|g3 G2||
